X:865
T:"Vi roar oss i Roalöv" - text: T. Tellving
T:(Anglais efter Jöns Persson, SvL Skåne nr. 82)
R:Fyrtur
Z:Patrik Månsson, 2008-12-29
O:Roalöv, Skåne
S:efter Jöns Persson
N:Transkriberad efter en inspelning av Tom Thomat; låt nr 2 på Göingemusickanternas skiva "Det dansar en Göing 2" (2007) med text och sång av T. Tellving.
M:2/4
L:1/16
Q:1/4=90
K:G
|: B2BA G2GE | DEDC B,2G,2 | d2dB cdec | ABAF G2G,2 |
   B2BA G2GE | DEDC B,2G,2 | d2dB cdec | ABAF G4   :|
   dBGB dBGB | cAFA GDB,D | dBGB dBGB | cAFA G2G,2 |
   dBGB dBGB | cAFA GDB,D | dBGB dBGB | cAFA G4 ] |

(:musicend:)
!!!Vi roar oss i Roalöv 
(Musik: Jöns Persson, Text: T. Tellving)

Vers 1[[<<]] 
Se, där kommer Pihlblad å felan har han me' si[[<<]]
Det pudar unnårr västen, de' e' nock hans brännevin[[<<]]
Vi ska dansa hela natten fram till morron[[<<]]
så ta ett tag i kjolen nu å lägg din hand i min[[<<]]

Vers 2[[<<]] 
Jöns Persson tar fram klarinetten och fiolen[[<<]]
Nu ska ni få höra nån'ting som ni allri hört[[<<]]
Å han spelar opp sin nya låt för alla[[<<]]
Flink i handen, gla' i hågen, pigger som en mört[[<<]]

Refräng[[<<]]
Kom så ska vi dansa, nu så ska vi dansa[[<<]]
Vi dansar hela natten tills solen den går opp[[<<]]
Vi roar oss i Roalöv, det e vad vi ska göra[[<<]]
Vi roar oss kungligt med flaggan i topp[[<<]]

Vers 3[[<<]] 
Nä, nu tror jag fan e' lös, jag glömde hatten[[<<]]
Har vi ingen hatt så kan vi änte få betalt[[<<]]
Då tar Pihlblad fram sin mössa under västen[[<<]]
Vi tar den här för annars så kan kvällen sluta skralt[[<<]]

Refräng[[<<]]
Kom så ska vi dansa, nu så ska vi dansa...[[<<]][[<<]]

Publicerat med benäget bistånd av (c)2007 T. Tellving

(:music:)
